www/assets/images/test_icons/flags/SM.svg

<svg fill="none" height="15" viewBox="0 0 21 15" width="21" xmlns="http://www.w3.org/2000/svg" xmlns:xlink="http://www.w3.org/1999/xlink"><mask id="a" height="15" maskUnits="userSpaceOnUse" width="21" x="0" y="0"><path d="m19 0h-17c-1.10457 0-2 .89543-2 2v11c0 1.1046.89543 2 2 2h17c1.1046 0 2-.8954 2-2v-11c0-1.10457-.8954-2-2-2z" fill="#fff"/></mask><g mask="url(#a)"><path d="m19 0h-17c-1.10457 0-2 .89543-2 2v11c0 1.1046.89543 2 2 2h17c1.1046 0 2-.8954 2-2v-11c0-1.10457-.8954-2-2-2z" fill="#fff"/><g clip-rule="evenodd" fill-rule="evenodd"><path d="m0 7h21v8h-21z" fill="#69bee7"/><path d="m8 4h5v1l-2.5 1-2.5-1z" fill="#e6bd34"/><path d="m13 8.5c0-1.38-1.12-2.5-2.5-2.5s-2.5 1.12-2.5 2.5 1.12 2.5 2.5 2.5 2.5-1.12 2.5-2.5zm-2.5 1.5c.828 0 1.5-.895 1.5-2s-.672-2-1.5-2-1.5.895-1.5 2 .672 2 1.5 2z" fill="#406421"/></g><path d="m10.5 9c.2761 0 .5-.44772.5-1s-.2239-1-.5-1-.5.44772-.5 1 .2239 1 .5 1z" fill="#d5b852"/><path d="m19 .5h-17c-.82843 0-1.5.67157-1.5 1.5v11c0 .8284.67157 1.5 1.5 1.5h17c.8284 0 1.5-.6716 1.5-1.5v-11c0-.82843-.6716-1.5-1.5-1.5z" stroke="#000" stroke-opacity=".1"/></g></svg>

<svg width="21" height="15" viewBox="0 0 21 15" fill="none" xmlns="http://www.w3.org/2000/svg">
<mask id="mask0_3_42" style="mask-type:alpha" maskUnits="userSpaceOnUse" x="0" y="0" width="21" height="15">
<path d="M19 0H2C0.89543 0 0 0.89543 0 2V13C0 14.1046 0.89543 15 2 15H19C20.1046 15 21 14.1046 21 13V2C21 0.89543 20.1046 0 19 0Z" fill="white"/>
</mask>
<g mask="url(#mask0_3_42)">
<path d="M19 0H2C0.89543 0 0 0.89543 0 2V13C0 14.1046 0.89543 15 2 15H19C20.1046 15 21 14.1046 21 13V2C21 0.89543 20.1046 0 19 0Z" fill="white"/>
<path fill-rule="evenodd" clip-rule="evenodd" d="M0 7H21V15H0V7Z" fill="#69BEE7"/>
<path fill-rule="evenodd" clip-rule="evenodd" d="M8 4H13V5L10.5 6L8 5V4Z" fill="#E6BD34"/>
<path fill-rule="evenodd" clip-rule="evenodd" d="M13 8.5C13 7.12 11.88 6 10.5 6C9.12 6 8 7.12 8 8.5C8 9.88 9.12 11 10.5 11C11.88 11 13 9.88 13 8.5ZM10.5 10C11.328 10 12 9.105 12 8C12 6.895 11.328 6 10.5 6C9.672 6 9 6.895 9 8C9 9.105 9.672 10 10.5 10Z" fill="#406421"/>
<path d="M10.5 9C10.7761 9 11 8.55228 11 8C11 7.44772 10.7761 7 10.5 7C10.2239 7 10 7.44772 10 8C10 8.55228 10.2239 9 10.5 9Z" fill="#D5B852"/>
<path d="M19 0.5H2C1.17157 0.5 0.5 1.17157 0.5 2V13C0.5 13.8284 1.17157 14.5 2 14.5H19C19.8284 14.5 20.5 13.8284 20.5 13V2C20.5 1.17157 19.8284 0.5 19 0.5Z" stroke="black" stroke-opacity="0.1"/>
</g>
</svg>
